build/Karasa-Jaga/scalable/actions/tools-symbolic.svg

<svg height="16" width="16" xmlns="http://www.w3.org/2000/svg"><path d="m9.7285156 1.0761719c-1.215679-.0398-2.3833609.4407575-3.2324218 1.5234375-.4780531.60959-.727785 1.2481344-.828125 1.8964844-.0377501.24395-.0639244.4776631-.0527344.7207031.0029.0635-.0062.12421 0 .1875.305846 1.43499.401061 2.972245-.328125 4.109375-1.434995 1.8173201-2.7877289 3.7017081-4.2636719 5.4863281h4.2617187l2.8144532-3.71875c.443803-.85573 1.6557719-1.148833 3.0449216-1.2832031 1.104211-.0295 2.137836-.5087738 2.91211-1.4960938.872755-1.11289 1.057241-2.3678143.720703-3.5527343l-3.044922 2.2167968c-2.0146271-.28705-3.3519416-1.1184331-2.6171876-3.8457031l2.8046876-1.65625c-.704348-.35757-1.462002-.5640006-2.1914064-.5878906zm-1.1796875 1.3066406a1.0962011 1.0962011 0 0 0 -.4941406.6523437c-.418186 1.5522301-.277663 2.9124013.5 3.8320313.777663.91962 1.9030595 1.2270888 3.0234375 1.3867187a1.0962011 1.0962011 0 0 0 .798828-.1992187l1.085938-.7910156c-.095675.1877-.121089.3751731-.269532.5644531-.58826.75013-1.272491 1.0546519-2.078125 1.0761719a1.0962011 1.0962011 0 0 0 -.076172.0039062c-.739682.07155-1.4665911.1810138-2.1503901.4335938-.683799.25259-1.3754688.6907871-1.7617188 1.4355471l.0996094-.158203-2.4882813 3.285156h-1.4765624c.96443-1.24679 1.9298325-2.504058 2.8828124-3.710938a1.0962011 1.0962011 0 0 0 .0625-.08789c.9694322-1.511789.8136074-3.287159.5-4.808594.0105831.10802.0130243.0688306.0039063-.1308594-.006093-.13234.0077346-.2868831.0410156-.5019531.074935-.4842.2443459-.9256919.6074219-1.3886719.353386-.45062.7556031-.7208081 1.1894531-.8925781z" fill="#bebebe"/></svg>

<?xml version="1.0" encoding="UTF-8" standalone="no"?>
<!-- Created with Inkscape (http://www.inkscape.org/) -->

<svg
   xmlns:dc="http://purl.org/dc/elements/1.1/"
   xmlns:cc="http://creativecommons.org/ns#"
   xmlns:rdf="http://www.w3.org/1999/02/22-rdf-syntax-ns#"
   xmlns:svg="http://www.w3.org/2000/svg"
   xmlns="http://www.w3.org/2000/svg"
   xmlns:sodipodi="http://sodipodi.sourceforge.net/DTD/sodipodi-0.dtd"
   xmlns:inkscape="http://www.inkscape.org/namespaces/inkscape"
   width="16"
   height="16"
   id="svg2"
   version="1.1"
   inkscape:version="0.92.2 (unknown)"
   sodipodi:docname="tools-symbolic.svg">
  <defs
     id="defs4">
    <linearGradient
       id="linearGradient3946">
      <stop
         id="stop3948"
         offset="0"
         style="stop-color:#000000;stop-opacity:0.74698794;" />
      <stop
         id="stop3950"
         offset="1"
         style="stop-color:#000000;stop-opacity:0.02409638;" />
    </linearGradient>
    <linearGradient
       id="linearGradient3830-9">
      <stop
         style="stop-color:#000000;stop-opacity:0.74698794;"
         offset="0"
         id="stop3832-7" />
      <stop
         style="stop-color:#000000;stop-opacity:0.02409638;"
         offset="1"
         id="stop3834-5" />
    </linearGradient>
    <linearGradient
       id="linearGradient3984">
      <stop
         style="stop-color:#f4deba;stop-opacity:1;"
         offset="0"
         id="stop3986" />
      <stop
         style="stop-color:#de9625;stop-opacity:0;"
         offset="1"
         id="stop3988" />
    </linearGradient>
  </defs>
  <sodipodi:namedview
     id="base"
     pagecolor="#ffffff"
     bordercolor="#666666"
     borderopacity="1.0"
     inkscape:pageopacity="0"
     inkscape:pageshadow="2"
     inkscape:zoom="13.463968"
     inkscape:cx="-2.2188852"
     inkscape:cy="3.9715527"
     inkscape:document-units="px"
     inkscape:current-layer="layer1"
     showgrid="false"
     inkscape:snap-grids="false"
     inkscape:window-width="1366"
     inkscape:window-height="716"
     inkscape:window-x="0"
     inkscape:window-y="27"
     inkscape:window-maximized="1"
     showborder="true"
     fit-margin-top="0"
     fit-margin-right="0"
     fit-margin-left="0"
     fit-margin-bottom="0"
     showguides="true"
     inkscape:guide-bbox="true"
     inkscape:snap-global="false">
    <inkscape:grid
       type="xygrid"
       id="grid7044"
       empspacing="8"
       visible="true"
       enabled="true"
       snapvisiblegridlinesonly="true"
       originx="-31.97559"
       originy="-816.00002"
       spacingx="1"
       spacingy="1" />
  </sodipodi:namedview>
  <metadata
     id="metadata7">
    <rdf:RDF>
      <cc:Work
         rdf:about="">
        <dc:format>image/svg+xml</dc:format>
        <dc:type
           rdf:resource="http://purl.org/dc/dcmitype/StillImage" />
        <dc:title></dc:title>
      </cc:Work>
    </rdf:RDF>
  </metadata>
  <g
     inkscape:label="Livello 1"
     inkscape:groupmode="layer"
     id="layer1"
     transform="translate(-31.97559,-220.36218)">
    <path
       style="fill:#bebebe;fill-opacity:1;stroke:none"
       d="M 9.7285156 1.0761719 C 8.5128366 1.0363719 7.3451547 1.5169294 6.4960938 2.5996094 C 6.0180407 3.2091994 5.7683088 3.8477438 5.6679688 4.4960938 C 5.6302187 4.7400438 5.6040444 4.9737569 5.6152344 5.2167969 C 5.6181344 5.2802969 5.6090344 5.3410069 5.6152344 5.4042969 C 5.9210804 6.8392869 6.0162954 8.3765419 5.2871094 9.5136719 C 3.8521144 11.330992 2.4993805 13.21538 1.0234375 15 L 5.2851562 15 L 8.0996094 11.28125 C 8.5434124 10.42552 9.7553813 10.132417 11.144531 9.9980469 C 12.248742 9.9685469 13.282367 9.4892731 14.056641 8.5019531 C 14.929396 7.3890631 15.113882 6.1341388 14.777344 4.9492188 L 11.732422 7.1660156 C 9.7177949 6.8789656 8.3804804 6.0475825 9.1152344 3.3203125 L 11.919922 1.6640625 C 11.215574 1.3064925 10.45792 1.1000619 9.7285156 1.0761719 z M 8.5488281 2.3828125 A 1.0962011 1.0962011 0 0 0 8.0546875 3.0351562 C 7.6365015 4.5873863 7.7770245 5.9475575 8.5546875 6.8671875 C 9.3323505 7.7868075 10.457747 8.0942763 11.578125 8.2539062 A 1.0962011 1.0962011 0 0 0 12.376953 8.0546875 L 13.462891 7.2636719 C 13.367216 7.4513719 13.341802 7.638845 13.193359 7.828125 C 12.605099 8.578255 11.920868 8.8827769 11.115234 8.9042969 A 1.0962011 1.0962011 0 0 0 11.039062 8.9082031 C 10.29938 8.9797531 9.5724709 9.0892169 8.8886719 9.3417969 C 8.2048729 9.5943869 7.5132031 10.032584 7.1269531 10.777344 L 7.2265625 10.619141 L 4.7382812 13.904297 L 3.2617188 13.904297 C 4.2261488 12.657507 5.1915513 11.400239 6.1445312 10.193359 A 1.0962011 1.0962011 0 0 0 6.2070312 10.105469 C 7.1764634 8.59368 7.0206386 6.81831 6.7070312 5.296875 C 6.7176143 5.404895 6.7200555 5.3657056 6.7109375 5.1660156 C 6.7048445 5.0336756 6.7186721 4.8791325 6.7519531 4.6640625 C 6.8268881 4.1798625 6.996299 3.7383706 7.359375 3.2753906 C 7.712761 2.8247706 8.1149781 2.5545825 8.5488281 2.3828125 z "
       transform="translate(31.97559,220.36218)"
       id="path3950" />
  </g>
</svg>
